X:048
T:Dublin Porter (reel) 
B:CRE3.155 (Portar Dhulainn)
F:file ID: cre.3/048dub_p
N:No attribution for this in CRE but I believe it might be a
Larry Redican tune.
R:reel
L:1/8
Q:180
M:C
K:G
B2BA BcdB|cBAB cdec|Addc dcAG|FGAF DEFD|
B3A BcdB|cBAB cdef|g2fg ecAF |1 G2GF G2 DG:|\
[2 G2GF GABc||
dggf gdBd|g2fg eABA|eA~A2 eAeg|fgag fgaf|
g2gf gdBd|g2fg eABA|eAAA eAeg|fgaf g2ef|
g2gf gdBd|g2fg eAA2|eA~A2 eAeg|fgag fgaf|
g2gf gdBd|g2fg eAA2|eAA2 eAeg|fgaf gfed|g8|]

%%%

